Obsidian-SemiLight/actions/24s/view-task.svg

<svg viewBox="0 0 24 24" xmlns="http://www.w3.org/2000/svg"><path d="m4 4v16h10 5 1v-6-10h-2v3h-2v-3h-8v3h-2v-3zm1 4h14v6 5h-5-9zm10.292969 2-4.591797 4.591797-1.1464845-1.146485-.7070313.707032 1.8457028 1.847656.00586-.007812.007812.007812 5.292969-5.292969z" fill="#4d4d4d"/></svg>

<svg xmlns="http://www.w3.org/2000/svg" viewBox="0 0 24 24">
  <defs id="defs3051">
    <style type="text/css" id="current-color-scheme">
      .ColorScheme-Text {
        color:#4d4d4d;
      }
      </style>
  </defs>
 <path style="fill:currentColor;fill-opacity:1;stroke:none" 
     d="M 4 4 L 4 20 L 14 20 L 19 20 L 20 20 L 20 14 L 20 4 L 18 4 L 18 7 L 16 7 L 16 4 L 8 4 L 8 7 L 6 7 L 6 4 L 4 4 z M 5 8 L 19 8 L 19 14 L 19 19 L 14 19 L 5 19 L 5 8 z M 15.292969 10 L 10.701172 14.591797 L 9.5546875 13.445312 L 8.8476562 14.152344 L 10.693359 16 L 10.699219 15.992188 L 10.707031 16 L 16 10.707031 L 15.292969 10 z "
     class="ColorScheme-Text"
     />
</svg>
